src/img/channel/channel_19.svg

<svg fill="none" height="80" viewBox="0 0 154 80" width="154" xmlns="http://www.w3.org/2000/svg"><g fill="#fff"><path d="m99.6658 29.8067c0-7.3351 0-14.68 0-22.02492 0-5.22282 2.3352-7.577443 7.4612-7.596823l38.255-.1065879c4.845 0 7.345 2.2868009 7.394 7.1995409.122 15.09029.187 30.17729.194 45.26119 0 4.4282-2.636 6.9379-7.161 6.967-12.985.0775-25.975.1324-38.973.1647-4.69 0-7.2187-2.4225-7.2574-7.1123-.0582-7.5775 0-15.1646 0-22.7518zm18.5362 9.1182h14.942c1.492 0 1.425-.969 1.425-1.938 0-3.3817 0-6.7829 0-10.1452v-6.1531h-16.367zm30.165 11.6278v-42.05387c-2.907 3.27517-5.504 6.03677-7.907 8.94367-.733.9001-1.16 2.0097-1.221 3.1686-.077 6.0465 0 12.0929.087 18.1394-.063.7855.119 1.5713.523 2.248 2.665 3.1686 5.485 6.2306 8.479 9.5735zm-3.178 3.8759c-3.111-3.469-5.766-6.5019-8.527-9.4282-.584-.5144-1.335-.7971-2.113-.7946-5.562-.0387-11.124-.0387-16.686 0-.698-.0362-1.386.1805-1.938.6105-2.819 3.0426-5.542 6.1821-8.536 9.5638zm-41.085-3.7887c3.149-3.5465 5.901-6.5794 8.566-9.6899.401-.5651.608-1.245.591-1.9379 0-6.2015 0-12.403 0-18.6045 0-.5523.067-1.2693-.243-1.6182-2.81-3.2267-5.697-6.3856-8.934-9.99019zm3.372-45.5422c3.052 3.41082 5.814 6.5309 8.633 9.5542.559.4123 1.245.6147 1.938.5717h16.192c.611 0 1.444 0 1.783-.407 2.907-3.0911 5.649-6.26932 8.721-9.68983z"/><path d="m25.364 41.9383c3.6337 3.3818 4.4089 10.9592 1.7539 14.8545-.5807.883-1.3761 1.604-2.3116 2.0955-.9356.4915-1.9806.7374-3.0372.7146-5.6492.0581-11.2983.0969-16.94749 0-2.78098 0-4.651115-1.8217-4.699564-4.845-.1485777-8.1976-.1614974-16.4113-.0387597-24.6412.0581387-3.4302 1.8410637-4.9321 5.2325037-5.0096 4.92241-.0775 9.85451-.1163 14.76731 0 5.1647.1356 7.6356 2.6356 7.9553 7.7518.2035 3.2946.3101 6.5504-2.6744 9.0794zm-18.25559 3.3624c0 2.2577.04845 4.2635 0 6.2499 0 1.376.5717 1.8701 1.87013 1.8508 3.06196 0 6.13366.0678 9.18596 0 2.5581-.0969 3.3139-1.1337 3.2945-4.0213-.0193-2.8876-.8139-3.9631-3.3042-4.0213-3.5658-.1163-7.1026-.0581-11.04639-.0581zm.13566-6.2887h10.94953c2.2577 0 2.6937-1.4341 2.7228-3.1686s.3101-4.1666-2.248-4.3604c-3.7403-.281-7.529-.0678-11.42433-.0678z"/><path d="m30.9258 41.7833c.2422-2.0833.3973-4.6705.8721-7.1899.9689-5.1162 4.0212-8.5948 9.2247-9.2441 4.226-.528 8.4995-.5572 12.7324-.0872 5.4263.6008 8.8662 4.1763 9.4476 9.5154.5426 5.0306.5426 10.105 0 15.1355-.5717 5.3101-3.9438 8.9341-9.3991 9.5639-4.1505.5188-8.3494.5188-12.4999 0-5.8914-.814-9.186-4.9031-9.8933-11.153-.2326-2.0155-.3004-4.031-.4845-6.5406zm25.959.3585c-.2519-2.0155-.3585-4.2054-.8333-6.3081-.6977-3.0329-2.7132-4.5542-6.2403-4.6414-3.8759-.1066-8.1103-1.0756-10.4359 3.498-.141.2905-.2482.5961-.3198.9109-1.1842 4.4671-1.1608 9.1687.0679 13.6239.8624 3.0716 2.8003 4.3313 6.6956 4.3894 3.7209.0582 7.8004.7752 9.8643-3.6918.2452-.5088.4149-1.0507.5039-1.6085.2519-1.9864.4554-3.9922.6976-6.1724z"/><path d="m126.148 80c-7.016 0-14.031 0-21.037 0-4.147 0-5.5521-1.3954-5.5715-5.4651 0-2.5775-.0581-5.1647 0-7.7518.0872-2.907 1.6865-4.5058 4.5545-4.5155h44.505c.59-.0481 1.183.0309 1.739.2315.557.2006 1.064.5183 1.487.9316.424.4132.754.9125.968 1.464.214.5516.307 1.1426.273 1.7333.116 2.8198.087 5.6395 0 8.4592-.068 3.3236-1.618 4.8449-4.951 4.8449-7.297.0873-14.632.0582-21.967.0679zm15.252-8.7209c-.098 1.039-.078 2.0856.058 3.1202.079.4086.239.7973.47 1.1434s.529.6425.877.872c4.554 1.938 8.304-.6104 8.246-5.5716 0-3.8759-1.599-5.2228-6.076-5.1938-3.304 0-3.595.407-3.595 4.9031zm-15.95-.1841c0-4.0503-1.415-5.5038-5.281-5.4844s-5.135 1.4728-5.135 5.6104c0 4.1375 1.414 5.5038 5.271 5.4941 3.856-.0097 5.164-1.5213 5.145-5.6201zm-17.626 2.1705c-1.87.4264-2.907.2132-2.984-1.812-.078-2.0251.63-2.8488 2.655-2.6162.713.1434 1.449.1202 2.151-.0678.514-.2035 1.192-.969 1.163-1.3663-.049-.6008-.611-1.5504-1.115-1.6667-5.813-1.3953-9.04 1.5989-8.042 7.3643.533 3.0523 3.343 4.3507 7.558 3.5174 1.773-.3488 2.568-2.2771 1.87-4.9902-.119-.291-.309-.5474-.552-.7456-.244-.1981-.534-.3316-.843-.3881-.692.1179-1.308.5046-1.715 1.0755-.281.3586-.117 1.095-.146 1.6957zm24.942.1938c0-2.2092.116-4.2053-.078-6.1821 0-.5814-.969-1.0852-1.492-1.6182-.513.533-1.337.969-1.482 1.6085-.157 1.114-.183 2.2424-.078 3.3624.068 6.4631-1.105 6.0949 6.647 5.9593.591 0 1.163-1.0369 1.745-1.5795-.621-.5232-1.173-1.2984-1.88-1.4825-1.13-.1603-2.276-.1831-3.411-.0679z"/><path d="m78.1834 36.5702c2.0252-3.0523 4.0697-5.8139 5.8139-8.8274 1.1918-2.0736 2.6065-3.1007 5.0193-2.6744 1.376.2423 2.7907.3585 4.186.5233-.5723 1.2647-1.2195 2.4943-1.938 3.6821-2.9069 4.2635-5.9011 8.4689-8.9824 12.8487 3.372 4.8449 6.7829 9.6026 10.0968 14.4282.4687.7939.8674 1.6272 1.1918 2.4902-.8817.2035-1.7635.4167-2.655.6008-3.5852.7461-5.8139-.7655-7.4805-3.9631-1.6008-2.7537-3.3441-5.4221-5.2228-7.9941-2.0349 3.0716-4.0892 5.8139-5.7558 8.7983-1.3953 2.4806-3.1201 3.7306-5.9883 3.1686-1.1919-.2326-2.4031-.4264-3.6046-.6395.4734-1.0699 1.0139-2.1087 1.6182-3.1105 3.1685-4.5736 6.3953-9.1084 9.6898-13.7595-3.4108-4.8449-6.7829-9.6898-10.1453-14.5348-.3354-.6159-.605-1.2655-.8042-1.9379.702-.2563 1.4168-.4762 2.1414-.6589 3.876-.7752 6.4728.7461 8.2267 4.3507 1.1434 2.5194 2.9457 4.6705 4.593 7.2092z"/><path d="m13.6008 15.7758c1.6376-4.5154 3.0039-8.61421 4.6608-12.59673.542-1.28837 1.5485-2.325955 2.8198-2.906947 2.8197-.968983 4.9224.736427 4.9418 3.740277.0484 5.31971-.0582 10.6588.0581 15.9688 0 2.0155-.969 2.1802-2.5484 2.1802s-2.8197-.1066-2.7325-2.2771c.1353-3.404.035-6.8132-.3004-10.20336-1.124 3.12986-2.2771 6.24996-3.3624 9.38946-.6104 1.7732-1.3953 3.3333-3.5852 3.3333s-2.907-1.6085-3.5465-3.3624c-1.05754-3.2008-2.32647-6.3278-3.79841-9.36036 0 3.43986-.0969 6.88946 0 10.31966.07752 2.093-1.08526 2.093-2.59687 2.1221-1.51161.029-2.58718-.1744-2.53873-2.1802.10658-5.3197 0-10.65884 0-15.95917 0-1.98642.62014-3.498031 2.80036-3.875934 2.18021-.377903 4.01158.261625 4.84491 2.548424 1.24998 3.40113 2.46124 6.78288 3.70154 10.21308.3682.8624.6976 1.657 1.1821 2.9069z"/><path d="m55.9935 22.1325c-1.4535 0-2.907 0-4.3508 0-1.6472.0581-2.9069.0969-2.9069-2.3062s1.2694-2.4903 3.0329-2.3934c2.3353.0678 4.6802.0872 7.0058 0 .7588-.1957 1.4771-.5238 2.122-.969-.5717-.6492-1.0271-1.5891-1.7538-1.9379-2.064-.8721-4.2442-1.4729-6.3662-2.219-3.4787-1.2112-4.7384-3.7209-4.031-7.93597.4845-2.90695 2.2286-4.089108 5.8139-4.098798 2.8197 0 5.6492.096899 8.4592 0 1.938-.087208 2.2384.843018 2.2674 2.480598 0 1.78293-.5426 2.48059-2.3643 2.38369-2.3352-.11627-4.6802-.09689-7.0057 0-.7681.16948-1.5019.46761-2.1706.88178.6105.62984 1.1047 1.53099 1.8411 1.83137 2.0736.87209 4.2635 1.45348 6.3759 2.22863.9635.3735 1.8289.9622 2.5302 1.7212.7013.7589 1.2199 1.6681 1.5163 2.6581.2963.9899.3625 2.0345.1936 3.054-.169 1.0194-.5686 1.9868-1.1684 2.8283-.9415.9395-2.1686 1.5394-3.4884 1.7054-1.8463.1633-3.7024.1859-5.5522.0678z"/><path d="m28.804 8.65387c0-2.18021.0679-4.36042 0-6.53094-.0872-2.005791 1.1919-1.937963 2.5485-1.937963 1.3565 0 2.5484-.135657 2.5484 1.908893-.0969 3.87593-.0678 7.75186 0 11.62784 0 2.9747 1.3275 4.0987 4.2151 3.934 2.2286-.1259 3.4108-1.1821 3.3914-3.498 0-3.8759.0678-7.75187 0-11.6278-.0484-1.831372.6589-2.393382 2.4225-2.325553 1.5697.058139 2.9069 0 2.8197 2.209283-.1066 4.03096.0775 8.06197-.0872 12.09287-.2229 5.5717-3.217 8.0329-9.3022 7.9166-5.717-.1066-8.4302-2.7131-8.5174-8.2073-.0678-1.8507-.0388-3.7112-.0388-5.56193z"/><path d="m86.6617 22.1324c-8.7209 0-11.3662-2.6938-11.1724-11.434.0279-1.30198.1706-2.59898.4263-3.87591.8043-4.06973 3.3818-6.375909 7.4903-6.589085 2.4127-.125968 4.8449 0 7.248-.058139 1.812-.067829 1.9379.968984 1.8798 2.325554-.0581 1.35658 0 2.62595-1.938 2.51936-1.9379-.10659-3.8759 0-5.8139 0-1.9379 0-3.4689.96898-3.6918 3.06198-.2227 2.07284-.2519 4.16194-.0872 6.24024.0183.4088.1185.8098.2949 1.179.1763.3693.4251.6994.7315.9705.3065.2712.6643.478 1.0523.6081.388.1302.7982.1809 1.2062.1494 2.1705.0775 4.3507.1841 6.5212.1065 1.8605-.0581 2.0639.9206 2.0833 2.4322s-.3004 2.5097-2.1124 2.3837c-1.3662-.1066-2.7422-.0194-4.1181-.0194z"/><path d="m68.1641 11.2119c0-2.98448.0775-5.96894 0-8.95341-.0969-1.889515.9109-2.083311 2.4031-2.044552s2.7616-.1356578 2.7325 2.005792c-.0678 5.96893-.0775 11.93787 0 17.90677 0 2.1512-1.2596 2.0058-2.6937 2.0252s-2.5582 0-2.4806-1.9864c.1259-2.9748.0387-5.9689.0387-8.9534z"/><path d="m144.849 69.0504c2.151-.562 2.907.1841 2.907 2.2675 0 2.0833-1.095 2.403-2.907 1.9379z"/><path d="m117.166 71.124c1.463-1.1821 2.16-2.1802 3.023-2.3546 1.812-.3682 1.938 1.0853 1.938 2.4418 0 1.3566-.184 2.6647-1.851 2.3256-.872-.1841-1.609-1.2112-3.11-2.4128z"/></g></svg>

<svg width="154" height="80" viewBox="0 0 154 80" fill="none" xmlns="http://www.w3.org/2000/svg">
<path d="M99.6658 29.8067C99.6658 22.4716 99.6658 15.1267 99.6658 7.78178C99.6658 2.55896 102.001 0.204337 107.127 0.184957L145.382 0.0783691C150.227 0.0783691 152.727 2.36517 152.776 7.27791C152.898 22.3682 152.963 37.4552 152.97 52.5391C152.97 56.9673 150.334 59.477 145.809 59.5061C132.824 59.5836 119.834 59.6385 106.836 59.6708C102.146 59.6708 99.6173 57.2483 99.5786 52.5585C99.5204 44.981 99.5786 37.3939 99.5786 29.8067H99.6658ZM118.202 38.9249C123.348 38.9249 128.251 38.9249 133.144 38.9249C134.636 38.9249 134.569 37.9559 134.569 36.9869C134.569 33.6052 134.569 30.204 134.569 26.8417V20.6886H118.202V38.9249ZM148.367 50.5527V8.49883C145.46 11.774 142.863 14.5356 140.46 17.4425C139.727 18.3426 139.3 19.4522 139.239 20.6111C139.162 26.6576 139.239 32.704 139.326 38.7505C139.263 39.536 139.445 40.3218 139.849 40.9985C142.514 44.1671 145.334 47.2291 148.328 50.572L148.367 50.5527ZM145.189 54.4286C142.078 50.9596 139.423 47.9267 136.662 45.0004C136.078 44.486 135.327 44.2033 134.549 44.2058C128.987 44.1671 123.425 44.1671 117.863 44.2058C117.165 44.1696 116.477 44.3863 115.925 44.8163C113.106 47.8589 110.383 50.9984 107.389 54.3801L145.189 54.4286ZM104.104 50.6399C107.253 47.0934 110.005 44.0605 112.67 40.95C113.071 40.3849 113.278 39.705 113.261 39.0121C113.261 32.8106 113.261 26.6091 113.261 20.4076C113.261 19.8553 113.328 19.1383 113.018 18.7894C110.208 15.5627 107.321 12.4038 104.084 8.79921L104.104 50.6399ZM107.476 5.0977C110.528 8.50852 113.29 11.6286 116.109 14.6519C116.668 15.0642 117.354 15.2666 118.047 15.2236C123.445 15.2236 128.842 15.2236 134.239 15.2236C134.85 15.2236 135.683 15.2236 136.022 14.8166C138.929 11.7255 141.671 8.54728 144.743 5.12677L107.476 5.0977Z" fill="white"/>
<path d="M25.364 41.9383C28.9977 45.3201 29.7729 52.8975 27.1179 56.7928C26.5372 57.6758 25.7418 58.3968 24.8063 58.8883C23.8707 59.3798 22.8257 59.6257 21.7691 59.6029C16.1199 59.661 10.4708 59.6998 4.82161 59.6029C2.04063 59.6029 0.170495 57.7812 0.122046 54.7579C-0.0265317 46.5603 -0.0394514 38.3466 0.0832863 30.1167C0.141425 26.6865 1.92435 25.1846 5.31579 25.1071C10.2382 25.0296 15.1703 24.9908 20.0831 25.1071C25.2478 25.2427 27.7187 27.7427 28.0384 32.8589C28.2419 36.1535 28.3485 39.4093 25.364 41.9383ZM7.10841 45.3007C7.10841 47.5584 7.15686 49.5642 7.10841 51.5506C7.10841 52.9266 7.68011 53.4207 8.97854 53.4014C12.0405 53.4014 15.1122 53.4692 18.1645 53.4014C20.7226 53.3045 21.4784 52.2677 21.459 49.3801C21.4397 46.4925 20.6451 45.417 18.1548 45.3588C14.589 45.2425 11.0522 45.3007 7.10841 45.3007ZM7.24407 39.012C10.9843 39.012 14.589 39.012 18.1936 39.012C20.4513 39.012 20.8873 37.5779 20.9164 35.8434C20.9455 34.1089 21.2265 31.6768 18.6684 31.483C14.9281 31.202 11.1394 31.4152 7.24407 31.4152V39.012Z" fill="white"/>
<path d="M30.9258 41.7833C31.168 39.7 31.3231 37.1128 31.7979 34.5934C32.7668 29.4772 35.8191 25.9986 41.0226 25.3493C45.2486 24.8213 49.5221 24.7921 53.755 25.2621C59.1813 25.8629 62.6212 29.4384 63.2026 34.7775C63.7452 39.8081 63.7452 44.8825 63.2026 49.913C62.6309 55.2231 59.2588 58.8471 53.8035 59.4769C49.653 59.9957 45.4541 59.9957 41.3036 59.4769C35.4122 58.6629 32.1176 54.5738 31.4103 48.3239C31.1777 46.3084 31.1099 44.2929 30.9258 41.7833ZM56.8848 42.1418C56.6329 40.1263 56.5263 37.9364 56.0515 35.8337C55.3538 32.8008 53.3383 31.2795 49.8112 31.1923C45.9353 31.0857 41.7009 30.1167 39.3753 34.6903C39.2343 34.9808 39.1271 35.2864 39.0555 35.6012C37.8713 40.0683 37.8947 44.7699 39.1234 49.2251C39.9858 52.2967 41.9237 53.5564 45.819 53.6145C49.5399 53.6727 53.6194 54.3897 55.6833 49.9227C55.9285 49.4139 56.0982 48.872 56.1872 48.3142C56.4391 46.3278 56.6426 44.322 56.8848 42.1418Z" fill="white"/>
<path d="M126.148 80C119.132 80 112.117 80 105.111 80C100.964 80 99.5589 78.6046 99.5395 74.5349C99.5395 71.9574 99.4814 69.3702 99.5395 66.7831C99.6267 63.8761 101.226 62.2773 104.094 62.2676C118.951 62.2676 133.787 62.2676 148.599 62.2676C149.189 62.2195 149.782 62.2985 150.338 62.4991C150.895 62.6997 151.402 63.0174 151.825 63.4307C152.249 63.8439 152.579 64.3432 152.793 64.8947C153.007 65.4463 153.1 66.0373 153.066 66.628C153.182 69.4478 153.153 72.2675 153.066 75.0872C152.998 78.4108 151.448 79.9321 148.115 79.9321C140.818 80.0194 133.483 79.9903 126.148 80ZM141.4 71.2791C141.302 72.3181 141.322 73.3647 141.458 74.3993C141.537 74.8079 141.697 75.1966 141.928 75.5427C142.159 75.8888 142.457 76.1852 142.805 76.4147C147.359 78.3527 151.109 75.8043 151.051 70.8431C151.051 66.9672 149.452 65.6203 144.975 65.6493C141.671 65.6493 141.38 66.0563 141.38 70.5524L141.4 71.2791ZM125.45 71.095C125.45 67.0447 124.035 65.5912 120.169 65.6106C116.303 65.63 115.034 67.0834 115.034 71.221C115.034 75.3585 116.448 76.7248 120.305 76.7151C124.161 76.7054 125.469 75.1938 125.45 71.095ZM107.824 73.2655C105.954 73.6919 104.917 73.4787 104.84 71.4535C104.762 69.4284 105.47 68.6047 107.495 68.8373C108.208 68.9807 108.944 68.9575 109.646 68.7695C110.16 68.566 110.838 67.8005 110.809 67.4032C110.76 66.8024 110.198 65.8528 109.694 65.7365C103.881 64.3412 100.654 67.3354 101.652 73.1008C102.185 76.1531 104.995 77.4515 109.21 76.6182C110.983 76.2694 111.778 74.3411 111.08 71.628C110.961 71.337 110.771 71.0806 110.528 70.8824C110.284 70.6843 109.994 70.5508 109.685 70.4943C108.993 70.6122 108.377 70.9989 107.97 71.5698C107.689 71.9284 107.853 72.6648 107.824 73.2655ZM132.766 73.4593C132.766 71.2501 132.882 69.254 132.688 67.2772C132.688 66.6958 131.719 66.192 131.196 65.659C130.683 66.192 129.859 66.628 129.714 67.2675C129.557 68.3815 129.531 69.5099 129.636 70.6299C129.704 77.093 128.531 76.7248 136.283 76.5892C136.874 76.5892 137.446 75.5523 138.028 75.0097C137.407 74.4865 136.855 73.7113 136.148 73.5272C135.018 73.3669 133.872 73.3441 132.737 73.4593H132.766Z" fill="white"/>
<path d="M78.1834 36.5702C80.2086 33.5179 82.2531 30.7563 83.9973 27.7428C85.1891 25.6692 86.6038 24.6421 89.0166 25.0684C90.3926 25.3107 91.8073 25.4269 93.2026 25.5917C92.6303 26.8564 91.9831 28.086 91.2646 29.2738C88.3577 33.5373 85.3635 37.7427 82.2822 42.1225C85.6542 46.9674 89.0651 51.7251 92.379 56.5507C92.8477 57.3446 93.2464 58.1779 93.5708 59.0409C92.6891 59.2444 91.8073 59.4576 90.9158 59.6417C87.3306 60.3878 85.1019 58.8762 83.4353 55.6786C81.8345 52.9249 80.0912 50.2565 78.2125 47.6845C76.1776 50.7561 74.1233 53.4984 72.4567 56.4828C71.0614 58.9634 69.3366 60.2134 66.4684 59.6514C65.2765 59.4188 64.0653 59.225 62.8638 59.0119C63.3372 57.942 63.8777 56.9032 64.482 55.9014C67.6505 51.3278 70.8773 46.793 74.1718 42.1419C70.761 37.297 67.3889 32.4521 64.0265 27.6071C63.6911 26.9912 63.4215 26.3416 63.2223 25.6692C63.9243 25.4129 64.6391 25.193 65.3637 25.0103C69.2397 24.2351 71.8365 25.7564 73.5904 29.361C74.7338 31.8804 76.5361 34.0315 78.1834 36.5702Z" fill="white"/>
<path d="M13.6008 15.7758C15.2384 11.2604 16.6047 7.16159 18.2616 3.17907C18.8036 1.8907 19.8101 0.853115 21.0814 0.272123C23.9011 -0.69686 26.0038 1.00855 26.0232 4.0124C26.0716 9.33211 25.965 14.6712 26.0813 19.9812C26.0813 21.9967 25.1123 22.1614 23.5329 22.1614C21.9535 22.1614 20.7132 22.0548 20.8004 19.8843C20.9357 16.4803 20.8354 13.0711 20.5 9.68094C19.376 12.8108 18.2229 15.9309 17.1376 19.0704C16.5272 20.8436 15.7423 22.4037 13.5524 22.4037C11.3625 22.4037 10.6454 20.7952 10.0059 19.0413C8.94836 15.8405 7.67943 12.7135 6.20749 9.68094C6.20749 13.1208 6.11059 16.5704 6.20749 20.0006C6.28501 22.0936 5.12223 22.0936 3.61062 22.1227C2.09901 22.1517 1.02344 21.9483 1.07189 19.9425C1.17847 14.6228 1.07189 9.28366 1.07189 3.98333C1.07189 1.99691 1.69203 0.485299 3.87225 0.107396C6.05246 -0.270507 7.88383 0.369021 8.71716 2.65582C9.96714 6.05695 11.1784 9.4387 12.4187 12.8689C12.7869 13.7313 13.1163 14.5259 13.6008 15.7758Z" fill="white"/>
<path d="M55.9935 22.1325C54.54 22.1325 53.0865 22.1325 51.6427 22.1325C49.9955 22.1906 48.7358 22.2294 48.7358 19.8263C48.7358 17.4232 50.0052 17.336 51.7687 17.4329C54.104 17.5007 56.4489 17.5201 58.7745 17.4329C59.5333 17.2372 60.2516 16.9091 60.8965 16.4639C60.3248 15.8147 59.8694 14.8748 59.1427 14.526C57.0787 13.6539 54.8985 13.0531 52.7765 12.307C49.2978 11.0958 48.0381 8.5861 48.7455 4.37103C49.23 1.46408 50.9741 0.281922 54.5594 0.272232C57.3791 0.272232 60.2086 0.369131 63.0186 0.272232C64.9566 0.185024 65.257 1.11525 65.286 2.75283C65.286 4.53576 64.7434 5.23342 62.9217 5.13652C60.5865 5.02025 58.2415 5.03963 55.916 5.13652C55.1479 5.306 54.4141 5.60413 53.7454 6.0183C54.3559 6.64814 54.8501 7.54929 55.5865 7.84967C57.6601 8.72176 59.85 9.30315 61.9624 10.0783C62.9259 10.4518 63.7913 11.0405 64.4926 11.7995C65.1939 12.5584 65.7125 13.4676 66.0089 14.4576C66.3052 15.4475 66.3714 16.4921 66.2025 17.5116C66.0335 18.531 65.6339 19.4984 65.0341 20.3399C64.0926 21.2794 62.8655 21.8793 61.5457 22.0453C59.6994 22.2086 57.8433 22.2312 55.9935 22.1131V22.1325Z" fill="white"/>
<path d="M28.804 8.65387C28.804 6.47366 28.8719 4.29345 28.804 2.12293C28.7168 0.117139 29.9959 0.184967 31.3525 0.184967C32.709 0.184967 33.9009 0.04931 33.9009 2.09386C33.804 5.96979 33.8331 9.84572 33.9009 13.7217C33.9009 16.6964 35.2284 17.8204 38.116 17.6557C40.3446 17.5298 41.5268 16.4736 41.5074 14.1577C41.5074 10.2818 41.5752 6.40583 41.5074 2.5299C41.459 0.698528 42.1663 0.136518 43.9299 0.204347C45.4996 0.262486 46.8368 0.204347 46.7496 2.41363C46.643 6.44459 46.8271 10.4756 46.6624 14.5065C46.4395 20.0782 43.4454 22.5394 37.3602 22.4231C31.6432 22.3165 28.93 19.71 28.8428 14.2158C28.775 12.3651 28.804 10.5046 28.804 8.65387Z" fill="white"/>
<path d="M86.6617 22.1324C77.9408 22.1324 75.2955 19.4386 75.4893 10.6984C75.5172 9.39642 75.6599 8.09942 75.9156 6.82249C76.7199 2.75276 79.2974 0.446581 83.4059 0.233405C85.8186 0.107437 88.2508 0.233405 90.6539 0.175266C92.4659 0.107437 92.5918 1.14425 92.5337 2.50082C92.4756 3.8574 92.5337 5.12677 90.5957 5.02018C88.6578 4.91359 86.7198 5.02018 84.7818 5.02018C82.8439 5.02018 81.3129 5.98916 81.09 8.08216C80.8673 10.155 80.8381 12.2441 81.0028 14.3224C81.0211 14.7312 81.1213 15.1322 81.2977 15.5014C81.474 15.8707 81.7228 16.2008 82.0292 16.4719C82.3357 16.7431 82.6935 16.9499 83.0815 17.08C83.4695 17.2102 83.8797 17.2609 84.2877 17.2294C86.4582 17.3069 88.6384 17.4135 90.8089 17.3359C92.6694 17.2778 92.8728 18.2565 92.8922 19.7681C92.9116 21.2797 92.5918 22.2778 90.7798 22.1518C89.4136 22.0452 88.0376 22.1324 86.6617 22.1324Z" fill="white"/>
<path d="M68.1641 11.2119C68.1641 8.22742 68.2416 5.24296 68.1641 2.25849C68.0672 0.368975 69.075 0.175179 70.5672 0.213938C72.0594 0.252697 73.3288 0.0782802 73.2997 2.21973C73.2319 8.18866 73.2222 14.1576 73.2997 20.1265C73.2997 22.2777 72.0401 22.1323 70.606 22.1517C69.1719 22.1711 68.0478 22.1517 68.1254 20.1653C68.2513 17.1905 68.1641 14.1964 68.1641 11.2119Z" fill="white"/>
<path d="M144.849 69.0504C147 68.4884 147.756 69.2345 147.756 71.3179C147.756 73.4012 146.661 73.7209 144.849 73.2558V69.0504Z" fill="white"/>
<path d="M117.166 71.124C118.629 69.9419 119.326 68.9438 120.189 68.7694C122.001 68.4012 122.127 69.8547 122.127 71.2112C122.127 72.5678 121.943 73.8759 120.276 73.5368C119.404 73.3527 118.667 72.3256 117.166 71.124Z" fill="white"/>
</svg>
